X:113
T:B113-  The Devil assist the plotting Whigs
Q:1/4=120
L:1/4
M:4/4
K:G
d/2B/2|G3/2A/2BA3/4G/4|Aeeg|d3/2B/2 d/2B/2 A/2G/2|\
A/2B/2 A/2F/2 Dd/2B/2|G3/2A/2BA3/4G/4|Aee3/2f/2|\
g/2a/2 b/2a/2 g/2e/2 e/2f/4g/4|B/2c/2dd3/2||b/2|\
e3/2d/2 e/2f/2 g/2a/2|b3/2a/2gG|A3/2B/2 c/2B/2 c/2d/2|\
eAAA/4B/4c/2|B/2A/2 B/2G/2 g/2e/2 d/2B/2|\
A/2B/2 A/2G/2 E3/2A/2| D3/2d/2 A/2B/2 c/2d/2|BGG3/2|]
